X:1
T: John the Madman
N:
C:
S:
A:
O:
R:
M:6/8
K:D
I:speed 180
%W: A1
% voice 1 (1 lines, 37 notes)
K:D
M:6/8
L:1/16
d4 A2 d4 c2 B2 A2 G2 F2 A2 D2 G4 F2 G4 B2 A2 G2 F2 E6 |e4 B2 e2 f2 g2 f3 e d2 c3 B A2 d4 c2 d4 f2 e3 d c2 d6 |
%W: A2
% voice 1 (1 lines, 37 notes)
d4 A2 d4 c2 B2 A2 G2 F2 A2 D2 G4 F2 G4 B2 A2 G2 F2 E6 |e4 B2 e2 f2 g2 f3 e d2 c3 B A2 d4 c2 d4 f2 e3 d c2 d6 |
%W: B1
% voice 1 (1 lines, 38 notes)
A2 B2 A2 d6 F2 G2 F2 B6 E3 F E2 e3 f e2 e2 B2 e2 c3 B A2 |d4 c2 d4 e2 f2 d2 f2 e2 c2 A2 d4 c2 d4 f2 e3 d c2 d6 |
%W: B2
% voice 1 (1 lines, 38 notes)
A2 B2 A2 d6 F2 G2 F2 B6 E3 F E2 e3 f e2 e2 B2 e2 c3 B A2 |d4 c2 d4 e2 f2 d2 f2 e2 c2 A2 d4 c2 d4 f2 e3 d c2 d6 ||
